X: 16
T: Sporting Paddy
Z: bp42
S: https://thesession.org/tunes/430#setting49855
R: reel
M: 4/4
L: 1/8
K: Ador
|EAAA GABG|EAAE G/F/GFG|EAAA GAB/^c/d|eaa/g/e dBAG|
EAAA GdBG|EAAE G/F/GFG|EAAA GAB/^c/d|eaa/g/e dzze|
geg/e/e a/g/ede|geg/e/e ab/a/ab|geg/e/e a/g/eda|eage dzef|
ggfg edBd|geee azga|agab geda|eage dBAG|

